X:1
T:Title
%%score { 1 | 2 }
L:1/8
M:4/4
K:Ab
V:1 treble nm="Grand Piano"
V:2 bass 
V:1
 z4 z2[Q:1/4=92] [CE]2 | [Ec][Ec][=D_c][E=c] [Fd][Ec][EA][_DF] | [CE]2 [CA]4 [EA]2 | BBBB BBcd | %4
 [Ec]6 [CE]2 | [Ec][Ec][=D_c][E=c] [Fd][Ec][EA][_DF] | [CE]2 [CA]4 [EA]2 | %7
 [FB][FB][Fc][Fc] [Fd][Ed][Ec][DB] |[M:3/4] [CA]6 |[M:1/4] [CE][CA] | %10
[M:4/4] [Ec][Ec][Ec][Fd] [Ec][EA] [FA]>[DF] | [CE]6 [CE][EA] | BBBB B[EG][EA][EB] | %13
 [Ec]6 [CE][CA] | [Ec][Ec][=D_c][E=c] [Fd]2 [Ec][Ec] | [FB]F[Fc]F [Fd]2 dd | cc[Ee][Fd] cA B>E | %17
[M:3/4] [CA]6 |] %18
V:2
 z4 z2 [A,,A,]2 | [A,,A,][A,,A,][A,,A,][A,,A,] [A,,A,][A,,A,][C,A,][D,A,] | %2
 [A,,A,]2 [A,,E,]4 [C,A,]2 | [E,G,E][E,G,E][E,G,E][E,G,E] [E,G,E][E,G,E][E,A,E][E,B,E] | %4
 [A,,A,]6 [A,,A,]2 | [A,,A,][A,,A,][A,,A,][A,,A,] [A,,A,][A,,A,][C,A,][D,A,] | %6
 [A,,A,]2 [A,,E,]4 [C,A,]2 | [D,A,][D,A,][C,=A,][C,A,] [B,,B,][B,,G,][E,_A,][E,G,] | %8
[M:3/4] [A,,E,A,]6 |[M:1/4] [A,,A,][A,,A,] | %10
[M:4/4] [A,,A,][A,,A,][A,,A,][A,,A,] [A,,A,][C,A,] [D,A,]>[D,A,] | [A,,A,]6 [A,,A,][C,A,] | %12
 [E,G,E][E,G,E][E,G,E][E,G,E] [E,G,E][D,B,][C,A,][B,,G,] | [A,,A,]6 [A,,A,][A,,A,] | %14
 [A,,A,][A,,A,][A,,A,][A,,A,] [A,,A,]2 [A,,A,][A,,A,] | %15
 [D,A,][D,A,][C,=A,][C,A,] [B,,B,]2 [E,G,E][E,G,E] | %16
 [A,E][A,E][C,A,][D,A,] [E,A,E][E,A,C] [E,G,D]>[E,G,D] |[M:3/4] [A,,E,A,]6 |] %18

